X: 1
T: the Ranting Highland-man.  a Reel.
R: reel
S: Fiddle Hell Online 2020-11-05 Se\'an Heel Slow Airs Workshop
Z: 2021 John Chambers <jc:trillian.mit.edu>
N: A few "unnecessary" natural signs added for clarity, to match the bass line.
M: C|
L: 1/8
K: A
% - - - - - - - - - -
V: 1 staves=2
e |\
A/A/A ed Tc>dec | (d/c/B/A/) =GB =gBBa |\
A/A/A ed Tc>dec | dBgB aAA :| g |\
(a/g/f/e/) fd Tc>dec | (d/=c/B/A/) =GB =gBBg |
(a/g/f/e/) fd Te>dec | dBgB aAAg |\
(a/g/f/e/) f>d Tc>dec | (d/=c/B/A/) =GB =gBBg |\
af=ge fdec | Bagb aAA |]
% - - - - - - - - - -
V: 2 clef=bass middle=d
z |\
a2a2 a2a2 | =g2g2 g2g2 | a2a2 a2a2 | e2e2 a2a :| z | a2a2 a2a2 | =g2g2 g2g2 |
a2a2 a2a2 | e2e2 a2a2 | a2a2 a2a2 | =g2g2 g2g2 | a2c'2 d'2c'2 | e'2e2 a2a |]
